public/svg/layouts/order.svg

<svg width="62" height="62" viewBox="0 0 62 62" fill="none" xmlns="http://www.w3.org/2000/svg">
<circle cx="31" cy="31" r="24.5" fill="white" stroke="white"/>
<circle opacity="0.2" cx="31" cy="31" r="30.5" fill="white" stroke="white"/>
<path d="M20.75 17.5H41.25V40.4291L38.0328 43.5H20.75V17.5Z" stroke="#1B2E50" stroke-width="1.5"/>
<path d="M38 44V40H42" stroke="#1B2E50" stroke-width="1.5"/>
<path d="M32.5713 36.3926L34.1427 37.964L38.4641 33.6426" stroke="#1B2E50" stroke-width="1.5"/>
<path d="M23.9287 22.25L38.8573 22.25" stroke="#1B2E50" stroke-width="1.5"/>
<path d="M23.9287 24.6074L38.8573 24.6074" stroke="#1B2E50" stroke-width="1.5"/>
<path d="M23.9287 26.9648L38.8573 26.9648" stroke="#1B2E50" stroke-width="1.5"/>
</svg>

<svg width="62" height="62" fill="none" xmlns="http://www.w3.org/2000/svg"><circle cx="31" cy="31" r="24.5" fill="#fff" stroke="#fff"/><circle opacity=".2" cx="31" cy="31" r="30.5" fill="#fff" stroke="#fff"/><path d="M20.75 17.5h20.5v22.93l-3.217 3.07H20.75v-26z" stroke="#1B2E50" stroke-width="1.5"/><path d="M38 44v-4h4m-9.429-3.607l1.572 1.571 4.321-4.321M23.929 22.25h14.928m-14.928 2.357h14.928m-14.928 2.358h14.928" stroke="#1B2E50" stroke-width="1.5"/></svg>
